icons/desktop/16/svg/camera-16.svg

<svg width="16" height="16" viewBox="0 0 16 16" fill="none" xmlns="http://www.w3.org/2000/svg">
<path fill-rule="evenodd" clip-rule="evenodd" d="M6 2C7.30603 2 8.50753 2.089 9.58496 2.22559C10.6927 2.36557 11.5799 3.1475 11.8848 4.17383L12.1494 3.90918C12.1524 3.90604 12.1551 3.90251 12.1582 3.89941C13.576 2.48163 16 3.48748 16 5.49121V10.5068C16 12.5121 13.5756 13.516 12.1582 12.0986L11.8838 11.8242C11.5836 12.8375 10.7181 13.629 9.61523 13.7695C8.2711 13.941 7.05382 14 6 14C4.69397 14 3.49247 13.911 2.41504 13.7744C1.03853 13.6005 0 12.4362 0 11.042V4.95801C0 3.59104 1.0102 2.40559 2.38477 2.23047C3.7289 2.05899 4.94618 2 6 2ZM6 3.5C5.0019 3.5 3.84894 3.55529 2.5752 3.71777C1.96828 3.79512 1.5 4.32732 1.5 4.95801V11.042C1.5 11.6738 1.97003 12.2061 2.60352 12.2861C3.62393 12.4155 4.76228 12.5 6 12.5C6.99818 12.5 8.15192 12.4447 9.42578 12.2822C10.0327 12.2049 10.5 11.6727 10.5 11.042V10.1289C10.5 9.82568 10.6828 9.55265 10.9629 9.43652C11.2431 9.32045 11.5658 9.38417 11.7803 9.59863L13.2197 11.0381C13.6924 11.5101 14.5 11.1754 14.5 10.5068V5.49121C14.5 4.82543 13.6975 4.4906 13.2246 4.95508C13.2227 4.95706 13.2217 4.95995 13.2197 4.96191L11.7803 6.40137C11.5658 6.61583 11.2431 6.67955 10.9629 6.56348C10.6828 6.44735 10.5 6.17432 10.5 5.87109V4.95801C10.5 4.32625 10.03 3.79392 9.39648 3.71387C8.37607 3.5845 7.23772 3.5 6 3.5Z" fill="black"/>
</svg>

<!-- This Source Code Form is subject to the terms of the Mozilla Public
   - License, v. 2.0. If a copy of the MPL was not distributed with this
   - file, You can obtain one at http://mozilla.org/MPL/2.0/. -->
<svg xmlns="http://www.w3.org/2000/svg" width="16" height="16" fill="context-fill" fill-opacity="context-fill-opacity" viewBox="0 0 16 16">
    <path fill-rule="evenodd" d="M6 2c1.306 0 2.508.089 3.585.226a2.76 2.76 0 0 1 2.3 1.948l.264-.265.01-.01C13.575 2.482 16 3.487 16 5.491v5.016c0 2.005-2.424 3.009-3.842 1.592l-.274-.275a2.73 2.73 0 0 1-2.269 1.946 28.6 28.6 0 0 1-7.2.004A2.755 2.755 0 0 1 0 11.042V4.958C0 3.591 1.01 2.406 2.385 2.23A29 29 0 0 1 6 2m0 1.5c-.998 0-2.151.055-3.425.218A1.25 1.25 0 0 0 1.5 4.958v6.084c0 .632.47 1.164 1.104 1.244a27 27 0 0 0 6.822-.004 1.25 1.25 0 0 0 1.074-1.24v-.913a.75.75 0 0 1 1.28-.53l1.44 1.44a.75.75 0 0 0 1.28-.532V5.49a.75.75 0 0 0-1.275-.536l-.005.007-1.44 1.44a.75.75 0 0 1-1.28-.53v-.914c0-.632-.47-1.164-1.104-1.244A27 27 0 0 0 6 3.5" clip-rule="evenodd" />
</svg>
